X:1
T:Title
%%score { ( 1 3 ) | ( 2 4 ) }
L:1/8
M:4/4
K:A
V:1 treble nm="Grand Piano"
V:3 treble 
V:2 bass 
V:4 bass 
V:1
 z4 z2[Q:1/4=100] [A,CE][A,CE] | [CEA]>[CEA] [CEA][CEA] [CEA][A,CE][A,EA][FB] | %2
 [Ec]2 [DB]2 [CA]2 A>c | B6 z2 | c6 z2 | [CA]>[CA] [CA][CA] [CA][A,E][A,EF][DEG] | %6
 [CEA]2 B2 c2 [A^d]>[Ad] |[M:9/8] e6- e z z |[M:4/4] A6 EE | d>c BA GE[EA][FB] | %10
 [Ec]2 [DB]2 [CA]2 [CE][CE] | [DF]>[EG] [EA]B ccBA | e2 [F^d]2 [Ge]2 [DE][DE] | %13
 [CA]>[CA] [CA][CA] [CA][A,E][A,EF][CEG] | [CEA]2 B2 c2 [A^d]>[Ad] |[M:9/8] e6- e z z | %16
[M:3/4] [CEA]6 |] %17
V:2
 z4 z2 A,,A,, | A,,>A,, A,,A,, A,,A,,C,[D,A,] | [E,A,]2 [E,G,]2 [A,,A,]2 z2 | %3
 z2 [E,G,]>[E,G,] [E,G,]2 z2 | z2 A,>A, A,2 [A,,A,]>[A,,A,] | %5
 [A,,E,]>[A,,E,] [A,,E,][A,,E,] [A,,E,]C,D,B,, | A,,2 [E,G,E]2 [A,E]2 [F,B,]>[F,B,] | %7
[M:9/8] B,2 C- C/C/ D2- D[E,DE]>[E,DE] |[M:4/4] [A,CE]6 E,E, | %9
 [E,B,E]>[E,A,E] [E,DE][E,CE] [E,B,E][D,G,][C,A,][D,A,] | [E,A,]2 [E,G,]2 [A,,A,]2 [A,,A,][A,,A,] | %11
 [D,A,]>[D,B,] [C,A,][E,G,E][K:treble] [A,E][A,E][G,DE][A,C] | %12
 [B,G]2[K:bass] [B,,B,]2 [E,B,]2 [E,G,][E,G,] | [A,,A,]>[A,,E,] [A,,E,][A,,E,] [A,,E,]C,D,B,, | %14
 A,,2 [E,G,E]2 [A,E]2 [F,B,]>[F,B,] |[M:9/8] B,2 C- C/C/ D2- DE,>E, |[M:3/4] A,,6 |] %17
V:3
 x8 | x8 | x8 | z2 E>E E2 B>d | z2 E>E E2 [CE]>[CE] | x8 | x8 |[M:9/8] G2 A- A/A/ B2- BG>G | %8
[M:4/4] x8 | x8 | x8 | x8 | x8 | x8 | x8 |[M:9/8] G2 A- A/A/ B2- B[DEG]>[DEG] |[M:3/4] x6 |] %17
V:4
 x8 | x8 | x8 | x8 | x8 | x8 | x8 |[M:9/8] E,6- E, z z |[M:4/4] x8 | x8 | x8 | x4[K:treble] x4 | %12
 x2[K:bass] x6 | x8 | x8 |[M:9/8] E,6- E, z z |[M:3/4] x6 |] %17

